X:67
T:twmpathe 1, y
Z:crm
M:2/4
L:1/8
Q:1/8=160
K:Em
E|E/D/E/G/ BB|c>BGE|G/D/GBB|AGFF|E>GF/E/D/F/|E2z:|
B|B>cdc|BA/G/AA|B2B2|AGAB|
G3G|F2zG|FFEE|AAEG/A/|
BAGF|EEcB|AGFG/A/|BAGF|E/F/GFD|E2z:||
